X: 168
T: A Dream Came True
R: jig
M: 6/8
K: Dmajor
|:D2 D AFA|cdd cBA|FAA Ace|dcB AFE|
D3 AFA|cdd cBA|DFA Ace|dAF D3:|
|:BAd GBd|agf gfe|BAd GBd|gfe fed|
BAd GBd|agf gfe|BBB gBf|1 BeB dcd:|2 BeB d2e||

